components/2.0/icon/icons/icon-alarm-22px.svg

<?xml version="1.0" encoding="UTF-8" standalone="no"?>
<svg width="22px" height="22px" viewBox="0 0 22 22" version="1.1" xmlns="http://www.w3.org/2000/svg" xmlns:xlink="http://www.w3.org/1999/xlink" xmlns:sketch="http://www.bohemiancoding.com/sketch/ns">
    <!-- Generator: Sketch 3.4.4 (17249) - http://www.bohemiancoding.com/sketch -->
    <title>icon-alarm-22px</title>
    <desc>Created with Sketch.</desc>
    <defs></defs>
    <g id="22px" stroke="none" stroke-width="1" fill="none" fill-rule="evenodd" sketch:type="MSPage">
        <g id="icon-alarm-22px" sketch:type="MSArtboardGroup" fill="#3D4752">
            <path d="M11,7 L12,7 L12,13 L7,13 L7,12 L11,12 L11,7 Z" id="Shape" sketch:type="MSShapeGroup"></path>
            <path d="M11,6 C14.3,6 17,8.7 17,12 C17,15.3 14.3,18 11,18 C7.7,18 5,15.3 5,12 C5,8.7 7.7,6 11,6 L11,6 Z M11,4 C6.6,4 3,7.6 3,12 C3,16.4 6.6,20 11,20 C15.4,20 19,16.4 19,12 C19,7.6 15.4,4 11,4 L11,4 L11,4 Z" id="Shape" sketch:type="MSShapeGroup"></path>
            <path d="M20,8.16219192 C20.5,7.66219192 22.3,5.76219192 19.9,3.26219192 C17.5,0.762191922 15.5,2.66219192 15,3.16219192 C17.2,4.16219192 19,5.96219192 20,8.16219192 L20,8.16219192 Z" id="Shape" sketch:type="MSShapeGroup"></path>
            <path d="M2.16219192,8.11835772 C3.16219192,5.91835772 4.96219192,4.11835772 7.16219192,3.11835772 C6.66219192,2.61835772 4.76219192,0.818357721 2.26219192,3.21835772 C-0.237808078,5.61835772 1.66219192,7.61835772 2.16219192,8.11835772 L2.16219192,8.11835772 Z" id="Shape" sketch:type="MSShapeGroup"></path>
        </g>
    </g>
</svg>

<svg width="22" height="22" xmlns="http://www.w3.org/2000/svg"><g fill="#3D4752" fill-rule="evenodd"><path d="M11 7h1v6H7v-1h4V7z"/><path d="M11 6c3.3 0 6 2.7 6 6s-2.7 6-6 6-6-2.7-6-6 2.7-6 6-6zm0-2c-4.4 0-8 3.6-8 8s3.6 8 8 8 8-3.6 8-8-3.6-8-8-8zM20 8.2c.5-.5 2.3-2.4 0-5-2.5-2.4-4.5-.5-5 0 2.2 1 4 2.8 5 5zM2.2 8c1-2 2.8-4 5-5-.5-.4-2.4-2.2-5 .2-2.4 2.4-.5 4.4 0 5z"/></g></svg>
